src/images/single-assets/inETH.svg

<svg xmlns="http://www.w3.org/2000/svg" width="500" height="500" fill="none"><g clip-path="url(#a)"><path fill="#fff" stroke="#ECEDEF" d="M499.5 250c0 137.795-111.705 249.5-249.5 249.5S.5 387.795.5 250 112.205.5 250 .5 499.5 112.205 499.5 250Z"/><path fill="#000" d="m224.281 294.519 94.61-1.896-51.342-73.046-88.846-7.891z" opacity=".6"/><path fill="#000" d="m310.999 306.258-94.561 1.813-33.899 58.715z" opacity=".8"/><path fill="#000" d="m216.453 308.079-45.627-82.75 11.727 141.465zM267.541 219.59l49.893-86.418-138.74 78.527 45.579 82.834z" opacity=".45"/><path fill="#000" d="m224.281 294.519 94.61-1.897-1.448-159.464z" opacity=".8"/><path fill="#000" fill-rule="evenodd" d="m243.035 175.282 17.691-10.013c-20.269-9.79-41.377-17.732-62.96-23.534-27.915-6.97-59.061-11.248-87.18-1.486-9.317 3.535-18.172 8.95-24.495 16.775-1.43 1.611-3.117 4.211-4.299 6.035-2.981 5.303-5.288 11.258-6.143 17.271-3.466 22.269 5.952 43.943 17.148 62.227 21.887 34.358 52.879 61.918 86.467 84.562l-2.763-33.333c-12.803-9.174-24.952-19.185-36.142-30.096-18.903-18.779-40.181-44.101-43.714-71.076-1.845-18.206 8.012-29.296 24.63-34.78 29.514-8.916 64.811-1.733 93.966 7.195a372 372 0 0 1 27.794 10.253m75.167 41.522c24.554 17.563 46.542 38.156 63.422 61.196 15.314 21.312 31.742 56.485 7.246 76.999-22.617 17.631-59.366 13.916-86.201 8.692l-1.374 6.259c33.633 7.927 90.343 13.016 106.725-25.85 14.336-38.088-21.975-83.664-47.461-109.064a383 383 0 0 0-42.514-35.581z" clip-rule="evenodd" opacity=".45"/></g><defs><clipPath id="a"><path fill="#fff" d="M0 0h500v500H0z"/></clipPath></defs></svg>

<svg width="500" height="500" viewBox="0 0 500 500" fill="none" xmlns="http://www.w3.org/2000/svg">
<g clip-path="url(#clip0_4505_24731)">
<path d="M499.5 250C499.5 387.795 387.795 499.5 250 499.5C112.205 499.5 0.5 387.795 0.5 250C0.5 112.205 112.205 0.5 250 0.5C387.795 0.5 499.5 112.205 499.5 250Z" fill="white" stroke="#ECEDEF"/>
<path opacity="0.6" d="M224.281 294.519L318.891 292.623L267.549 219.577L178.703 211.686L224.281 294.519Z" fill="black"/>
<path opacity="0.8" d="M310.999 306.258L216.438 308.071L182.539 366.786L310.999 306.258Z" fill="black"/>
<path opacity="0.45" d="M216.453 308.079L170.826 225.329L182.553 366.794L216.453 308.079Z" fill="black"/>
<path opacity="0.45" d="M267.541 219.59L317.434 133.172L178.694 211.699L224.273 294.533L267.541 219.59Z" fill="black"/>
<path opacity="0.8" d="M224.281 294.519L318.891 292.622L317.443 133.158L224.281 294.519Z" fill="black"/>
<path opacity="0.45" fill-rule="evenodd" clip-rule="evenodd" d="M243.035 175.282L260.726 165.269C240.457 155.479 219.349 147.537 197.766 141.735C169.851 134.765 138.705 130.487 110.586 140.249C101.269 143.784 92.4142 149.199 86.0906 157.024C84.6616 158.635 82.9738 161.235 81.7924 163.059C78.8106 168.362 76.5039 174.317 75.6488 180.33C72.1831 202.599 81.601 224.273 92.7968 242.557C114.684 276.915 145.676 304.475 179.264 327.119L176.501 293.786C163.698 284.612 151.549 274.601 140.359 263.69C121.456 244.911 100.178 219.589 96.6449 192.614C94.7996 174.408 104.657 163.318 121.275 157.834C150.789 148.918 186.086 156.101 215.241 165.029C224.454 168.011 233.753 171.437 243.035 175.282ZM318.202 216.804C342.756 234.367 364.744 254.96 381.624 278C396.938 299.312 413.366 334.485 388.87 354.999C366.253 372.63 329.504 368.915 302.669 363.691L301.295 369.95C334.928 377.877 391.638 382.966 408.02 344.1C422.356 306.012 386.045 260.436 360.559 235.036C347.34 222.224 333.101 210.309 318.045 199.455L318.202 216.804Z" fill="black"/>
</g>
<defs>
<clipPath id="clip0_4505_24731">
<rect width="500" height="500" fill="white"/>
</clipPath>
</defs>
</svg>
